X: 3292
T: BONNIE BLUE FLAG
%R: jig
B: James Kerr "Merry Melodies" v.3 p.32 #292
Z: 2016 John Chambers <jc:trillian.mit.edu>
M: 6/8
L: 1/8
K: G
G |\
B3- B2B | c3  c2c | d2d B2G | A3- A2d |\
g3  f2g | eed B2G | B2A G2F | G3- G2 :|
|: d |\
g3- g2g | f3- f2f | eee e2e | d3- d2d |\
g3  d2d | f2e d2c | B2A G2F | G3- G2 :|

%%sep 1 1 500
%%sep 1 1 500

